X:193
T:Well, You Needn't
C:Thelonious Monk
N:
L:1/8
Q:1/4=120
M:4/4
K:F
z7/1=B, | "F6"CF A2 c2 AF | "Gb6"_eB z4 z=B, | "F6"CF A2 c2 AF | "Gb6"B_G z4 z=B, | 
"F6"CF A2 c2 AF | "Gb6"_eB z4 z=B, | "F6"CF C2 C=B, CF | "F6"C6 z=B, | "F6"CF A2 c2 AE | 
"Gb6"_eB z4 z=B, | "F6"CF A2 c2 AF | "Gb6"B_G z4 z=B, | "F6"CF A2 c2 AF | "Gb6"_eB z4 z=B, | 
"F6"CF C2 C=B, CF | "F6"C6 z_D | "G7"DG D2 D_D =DG | "G7"D6 zD | "Ab7"_E_A E2 ED EA | 
"Ab7"_E6 zE | "A7"EA EE "Bb7"FB FF | "B7"_G=B GE "Bb7"F_B F_E | "A7"EA ED "Ab7"_E_A E_D | 
"G7"DG _DC "Gb7"z2 z=B, | "F6"CF A2 c2 AF | "Gb6"_eB z4 z=B, | "F6"CF A2 c2 AF | 
"Gb6"B_G z4 z=B, | "F6"CF A2 c2 AF | "Gb6"_eB z4 z=B, | "F6"CF C2 C=B, CF | "F6"C6 z2 | 
z8 | 


